X:250
T:The 
R:reel
C:Bruce Osborne - July 2002
Z:abc by bosborne@kos.net
M:2/4
L:1/8
K:Eb
B,/D/|EE/G/ F/E/D/F/|E/D/E/G/ B/c/B/G/|B/c/B/G/ B/c/B/G/|A/F/D/B,/ =A,/B,/C/D/|\
EE/G/ F/E/D/F/|E/D/E/G/ B/c/B/G/|B/c/B/G/ B/c/B/G/|A/F/D/F/ E:|
|:B/d/|ee g/e/B/e/|g/e/B/e/ g/e/B/e/|ff f/d/B/d/|f/d/B/d/ f/d/B/d/|\
ee g/e/B/e/|g/e/B/e/ g/e/B/e/|ff f/d/B/d/|e/B/G/D/ E:|
